public/images/icons/wiki/straal/vega.svg

<svg fill="none" height="310" stroke-width="5" width="310" xmlns="http://www.w3.org/2000/svg"><g stroke="#eee"><path d="m185 140-30 30v75" fill="none" stroke-linecap="round" stroke-linejoin="round" stroke-width="4"/><g stroke-width="5"><path d="m185 155-15 15v30l15-15" fill="#eee" stroke-linecap="round" stroke-linejoin="round"/><path d="m110 80a15 15 0 0 1 15-15m45 0a15 15 0 0 1 15 15m-60-15h45m-60 15v150a15 15 0 0 0 15 15m45 0a15 15 0 0 0 15-15m-60 15h45m15-165v150" fill="none" stroke-linecap="square"/></g></g></svg>

<svg xmlns="http://www.w3.org/2000/svg" baseProfile="full" version="1.1" width="310px" height="310px" style="fill: none; width: 310px; height: 310px; stroke-width: 5;"><path d="M185,140 L185,140 L155,170 L155,245 " style="stroke-width: 4; stroke-linecap: round; stroke-linejoin: round; stroke: rgb(238, 238, 238); fill: none;"></path><path d="M185,155 L185,155 L170,170 L170,200 L185,185 M170,215 L170,215 L170,215 M170,230 L170,230 L170,230 " style="stroke-width: 5; stroke-linecap: round; stroke-linejoin: round; stroke: rgb(238, 238, 238); fill: rgb(238, 238, 238);"></path><path d="M110,80 A15,15 0 0,1 125,65 M170,65 A15,15 0 0,1 185,80 M125,65 L125,65 L170,65 M110,80 L110,80 L110,230 A15,15 0 0,0 125,245 M170,245 A15,15 0 0,0 185,230 M125,245 L125,245 L170,245 M185,80 L185,80 L185,230 " style="stroke-width: 5; stroke-linecap: square; stroke-linejoin: miter; stroke: rgb(238, 238, 238); fill: none;"></path></svg>
